X:1
T:Caledonian Laddie -- Hornpipe
R:hornpipe
B:Cole's 1000 Fiddle Tunes
M:C|
L:1/8
K:D
vD3E FEFA|BABd e2f2|dcBA GBF"4"A|G2E2 EGFE|
D3E EFEA|BABd e2f2|dcBA GBEG|1 F2D2D2z:|2F2D2D2|]
|:(ude)|vf2f2 gfed|cd"4"ec A2 (Bc)|d2B2 Bcde|f2B2B2d2|
A3B AFED|gfge fefd|"4"edcB ABde|1 f2d2d2:|2f2d2d2z|]
